X:468
T:I'll Tell Me Ma
S:Sessions etc
Z:Nigel Gatherer
M:2/4
L:1/8
K:D
Ad f>f | ge f2  | fe  e>f | ed d2 :|
aa a<f | gg g<e | f>f fd  | ec BA  |
aa a<f | gg g<e | f>d ec  | ed d2 |]
